robot-love.svg

<svg fill="currentColor" viewBox="0 0 24 24"><path d="M22 14h-1c0-3.87-3.13-7-7-7h-1V5.73A2 2 0 1 0 10 4c0 .74.4 1.39 1 1.73V7h-1c-3.87 0-7 3.13-7 7H2c-.55 0-1 .45-1 1v3c0 .55.45 1 1 1h1v1a2 2 0 0 0 2 2h14c1.11 0 2-.89 2-2v-1h1c.55 0 1-.45 1-1v-3c0-.55-.45-1-1-1M9.7 15.45l-.73.73-1.47 1.47-2.2-2.2c-.4-.4-.4-1.06 0-1.45.41-.42 1.06-.42 1.47 0l.73.72.73-.72c.41-.42 1.06-.42 1.47 0 .4.39.4 1.05 0 1.45m9 0-.73.73-1.47 1.47-2.2-2.2c-.4-.4-.4-1.06 0-1.45.41-.42 1.06-.42 1.47 0l.73.72.73-.72c.41-.42 1.06-.42 1.47 0 .4.39.4 1.05 0 1.45"/></svg>

<svg  viewBox="0 0 24 24" fill="currentColor"><path  d="M22 14H21C21 10.13 17.87 7 14 7H13V5.73C13.6 5.39 14 4.74 14 4C14 2.9 13.11 2 12 2S10 2.9 10 4C10 4.74 10.4 5.39 11 5.73V7H10C6.13 7 3 10.13 3 14H2C1.45 14 1 14.45 1 15V18C1 18.55 1.45 19 2 19H3V20C3 21.11 3.9 22 5 22H19C20.11 22 21 21.11 21 20V19H22C22.55 19 23 18.55 23 18V15C23 14.45 22.55 14 22 14M9.7 15.45L8.97 16.18L7.5 17.65L5.3 15.45C4.9 15.05 4.9 14.39 5.3 14C5.71 13.58 6.36 13.58 6.77 14L7.5 14.72L8.23 14C8.64 13.58 9.29 13.58 9.7 14C10.1 14.39 10.1 15.05 9.7 15.45M18.7 15.45L17.97 16.18L16.5 17.65L14.3 15.45C13.9 15.05 13.9 14.39 14.3 14C14.71 13.58 15.36 13.58 15.77 14L16.5 14.72L17.23 14C17.64 13.58 18.29 13.58 18.7 14C19.1 14.39 19.1 15.05 18.7 15.45Z"/></svg>
